X:596
T:Reel 596
M:4/4
K:Amin
L:1/8
B,|C2EC G,CEC|G,2EC DB,G,B,|C2EC GCEC|AFED CA,A,B,|C2EC G,CEC|DFED CA,A,G,|CB,CD EFED|GEFD EA,A,|||ABcd ecAc|BAdB BAGB|cBcd ecAc|BAGB A2AB|cBcd ecAc|Bcde BGGB|cBcB cBAF|GEDB, CA,A,|
